X:1
T:Belleisle’s March.2voices. JClw.01
T:Monck’s March,aka.2voices. JClw.01
M:2/4
L:1/8
Q:1/4=120
S:J.Clews MS,Stoke-upon-Tern,Shrops.1832
A:N. Shropshire
N:JC places the sharp for the key sig an octave lower than is usual.
Z:Neil Brookes 2006
K:G
[V:1]|:D2|G2G>B|A2A>c|B2g>e|d3c|B2(3dBG|A2(3cAF|G2G>G|G2:|
[V:2]|:z2|z2G>G|F2F>A|G2e>c|B3A|G2(3DGB|F2(3AFD|G2B>B|B2:|
%
[V:1]|:D2|d>ed>c|B2B2|c>dc>B|A2A2|d>ed>c|B>cB>c|d>edc/B/|HA2D2|
[V:2]|:d2|B>cB>A|G2G2|A>BA>G|F2F2|B>cB>A|G>AG>A|B>cBA/G/|HF2z2|
%
[V:1] G2G>B|A2A>c|B2g>e|d3c|B2(3dBG|A2(3cAF|G2G>G|G4:|
[V:2] z2G>G|F2F>A|G2e>c|B3A|G2(3DGB|F2(3AFD|G2B>B|B4:|

